src/assets/img/phone.svg

<svg width="35" height="34" viewBox="0 0 35 34" fill="none" xmlns="http://www.w3.org/2000/svg">
<path d="M15.3912 8.83988L10.4577 3.3078C9.88896 2.6703 8.84625 2.67313 8.18562 3.3163L4.12854 7.26455C2.92104 8.43896 2.57542 10.1829 3.27396 11.5811C7.44715 19.9748 14.4157 26.7538 23.0504 30.8195C24.4883 31.498 26.2821 31.1623 27.4896 29.9879L31.5846 26.0028C32.2481 25.3582 32.2496 24.3396 31.5875 23.7871L25.8708 19.02C25.2729 18.5214 24.344 18.5865 23.7446 19.1702L21.7554 21.1054C21.6536 21.2091 21.5195 21.2774 21.3738 21.2999C21.2282 21.3224 21.0789 21.2979 20.949 21.23C17.6975 19.4112 15.0004 16.7877 13.1323 13.6268C13.0623 13.5004 13.037 13.3551 13.0602 13.2133C13.0834 13.0716 13.1538 12.9411 13.2606 12.842L15.244 10.9139C15.8448 10.3274 15.9104 9.42071 15.3912 8.83846V8.83988Z" stroke="white" stroke-width="2" stroke-linecap="round" stroke-linejoin="round"/>
</svg>

<svg width="35" height="34" fill="none" xmlns="http://www.w3.org/2000/svg"><path d="m15.391 8.84-4.933-5.532c-.569-.638-1.612-.635-2.272.008L4.129 7.265c-1.208 1.174-1.554 2.918-.855 4.316C7.447 19.975 14.416 26.754 23.05 30.82c1.438.678 3.232.342 4.44-.832l4.095-3.985c.663-.645.665-1.663.002-2.216l-5.716-4.767c-.598-.499-1.527-.433-2.126.15l-1.99 1.935a.69.69 0 0 1-.806.125 20.934 20.934 0 0 1-7.817-7.603.64.64 0 0 1 .129-.785l1.983-1.928c.6-.587.666-1.493.147-2.076v.002Z" stroke="#fff" stroke-width="2" stroke-linecap="round" stroke-linejoin="round"/></svg>
